app/assets/hero-3.svg

<svg height="391" viewBox="0 0 306 391" width="306" xmlns="http://www.w3.org/2000/svg"><g fill="none" fill-rule="evenodd" transform="matrix(.98480775 -.17364818 .17364818 .98480775 -12.826351 20.474539)"><g transform="translate(74.410048 .138156)"><g fill="#b28b67" transform="translate(53.117647 29.211538)"><path d="m0 68.7884615 9.56480582-44.2884615h6.89838338l6.3015167 44.2884615z"/><path d="m33.9196976 46.421335c-7.103799 1.819089-34.34158219-12.0969025-32.91731417-32.2627342 1.42426803-20.16583173 29.68114927-15.72960569 35.17769777-5.55162555 5.4965484 10.17798015 4.8434155 35.99527085-2.2603836 37.81435975z"/></g><path d="m76.3224232 26.0880304c-3.0003223-.4887928-11.0788225-.8248515-12.5686423-.8246345-.9520651 0-1.9838137.2160842-2.547694-.6523747-.4617723-.7111686-.2926082-1.9139505-.4304214-2.7392359-.1600201-.9587108-.387314-1.9050555-.6172204-2.8490136-.6542318-2.6860826-1.6435261-5.2415602-3.0277543-7.6408323-2.597333-4.50132003-6.4023278-8.02722386-11.2059786-10.07893888-5.3046117-2.26541274-11.3072158-2.78414496-17.0130752-2.32464063-6.1060184.49161322-11.633352 2.49408014-17.3984297 4.37852517-5.49380548 1.79571167-11.24799743 2.50254127-16.99391624 1.6256213-5.78924396-.88342852-10.16356196-4.00059479-15.04667856-6.95916916-4.9989407-3.02886681-10.7117669-5.00985548-16.6214069-4.55447324-5.5164479.42522591-10.6007326 2.68803522-15.162285 5.71082738-4.2678556 2.82818621-7.7893863 6.23086131-9.7775543 11.01985966-2.1388264 5.1515251-2.136867 10.806162 1.3803094 15.3588996 5.0980007 6.5992458 14.562264 8.3057902 22.4361235 8.1361337 4.5543678-.0978453 9.0273104-.9237816 13.3271701-2.4261741 5.73438-2.0037687 10.6897777-5.3999352 16.05447861-8.1554425 2.51764948-1.2930339 5.11998987-2.3550139 7.84773376-3.1199867 2.64697184-.7426266 5.25410195-1.0832413 7.65070221.5052812 2.53528435 1.6805102 4.80713422 3.3312979 7.70752572 4.3832982 2.7823902 1.0092606 5.7295902 1.5737697 8.6939896 1.5509898 5.7676903-.0442582 11.4533022-1.8295562 17.0550941-3.0253956 4.5680838-.9749823 9.4557724-1.9467103 14.1129014-1.0094776 1.9433189.3911644 4.7818794 1.1986597 5.4837907 3.2050318-11.8134018 2.1269974-16.4531028 16.6410859-13.1227254 27.2958153 1.7974502 5.7507466 12.6021702 12.4733085 16.8031876 9.4500542 2.6614653-1.9153186 1.0456823-4.429785 0-6.0896847-2.0025372-3.1787807-2.6876845-7.2620342 1.0178148-9.4751615 3.1962653-1.9087436 6.5569181 2.624016 6.6204907 2.6190261.8784777-.0687738 8.469288-4.3335517 13.6992182-10.5569443 5.1593455.3038344 5.9420929-3.0757908 4.7101422-5.8396891-1.2319506-2.7638982-8.9213902-6.2422889-13.0668903-6.9180944z" fill="#101030"/></g><g transform="translate(.273968 173.325707)"><path d="m126.853333 0 46.463952 117.469797 31.163565 99.310812h12.305817l-47.642243-216.780609z" fill="#997659"/><path d="m117.497074 0c-.494774 41.2796932-7.710406 96.8560999-8.86322 99.4292659-.768544 1.7154441-27.2998917 23.5303041-79.594045 65.4445791l8.4757118 9.059856c61.7022563-35.936233 93.9810232-56.300853 96.8363002-61.093861 4.282915-7.189511 18.226611-73.3483381 29.421512-112.83984z" fill="#b28b67"/><path d="m2.50800092 24.2346094c-1.03812083 2.7857025-1.55718125 4.8742951-1.55718125 6.2657779 0 1.7131219.28563974 4.2129928.85691921 7.4996127h53.62795262c1.3936003-4.6032181.5891334-7.0883474-2.4134009-7.455388s-5.4967906-.6984488-7.4827688-.9942247l-24.8800007-11.0820666c-.5045012-.2247153-1.095648.002096-1.3203633.5065973-.0037595.0084404-.0074019.0169325-.010926.0254739l-1.5828816 3.8363684c-2.7795615 1.2957592-5.0382438 1.9436389-6.7760468 1.9436389-1.3947621 0-3.31448107-.5559731-5.75915693-1.6679192l-.00000296.0000065c-1.00544635-.4573212-2.19125376-.012978-2.64857498.9924684-.01936656.0425784-.03723342.0858232-.05356761.1296545z" fill="#e4e4e4" transform="matrix(.64278761 .76604444 -.76604444 .64278761 44.681447 144.444923)"/><path d="m2.50800092 24.2346094c-1.03812083 2.7857025-1.55718125 4.8742951-1.55718125 6.2657779 0 1.7131219.28563974 4.2129928.85691921 7.4996127h53.62795262c1.3936003-4.6032181.5891334-7.0883474-2.4134009-7.455388s-5.4967906-.6984488-7.4827688-.9942247l-24.8800007-11.0820666c-.5045012-.2247153-1.095648.002096-1.3203633.5065973-.0037595.0084404-.0074019.0169325-.010926.0254739l-1.5828816 3.8363684c-2.7795615 1.2957592-5.0382438 1.9436389-6.7760468 1.9436389-1.3947621 0-3.31448107-.5559731-5.75915693-1.6679192l-.00000296.0000065c-1.00544635-.4573212-2.19125376-.012978-2.64857498.9924684-.01936656.0425784-.03723342.0858232-.05356761.1296545z" fill="#e4e4e4" transform="translate(196.906667 188.175732)"/><path d="m158.093333 206.551602 58.508227-6.342715-43.36156-200.208887h-52.403611z" fill="#69a1ac"/><path d="m41.1420937 150.257357 38.3779063 45.375392c40.422622-44.099313 63.989116-72.874123 70.699482-86.324429 6.710367-13.4503067 12.742644-49.8864133 18.096834-109.30832h-58.997005c-2.92473 52.2768015-4.896201 79.63155-5.914414 82.0642454s-21.7724811 25.1637326-62.2628033 68.1931116z" fill="#89c5cc"/></g><g transform="translate(19.374347 76.147272)"><path d="m187.171875 73.4664412 34.252989-15.0619557c6.000325-5.9869085 11.794494-10.5372358 17.382507-13.6509819 1.670922-.5326477 4.525615-.6935669 1.479881 3.7607467-3.045733 4.4543135-6.049317 9.2767363-4.832322 10.8378216 1.216995 1.5610854 4.742364-.1619278 6.13513 2.3767032.928511 1.6924206-5.013993 3.7169091-17.827509 6.0734656l-25.653467 19.6937687zm-138.4804514 4.1485321 19.3710764 3.8484197c-19.4809221 36.351459-29.9281907 55.617754-31.3418058 57.798884-3.1806339 4.907542-.2130381 13.901633.8831794 18.637983-6.8770538 1.602883-4.164955-8.761191-12.8677337-6.597267-7.9434928 1.97513-14.6786169 7.044017-22.0855986.207814-.91064487-.840471-1.57727998-3.467545 1.52756969-4.814959 7.73531281-3.356899 19.16358601-9.642625 21.01668151-12.082997 2.5270267-3.327884 10.3592371-22.327176 23.4966311-56.9978777z" fill="#b28b67"/><path d="m116.533027 9.34358663 8.020774-2.11094364c19.243705 15.67554241 30.102637 56.43045931 42.402053 60.87474451 11.628599 4.2018919 27.032102-2.1963486 45.270743-10.6116543l6.895504 12.3966199c-15.488029 20.030962-50.567971 38.8783409-66.124724 31.2318589-24.872014-12.2251344-34.791164-62.7941529-36.46435-91.78062537z" fill="#e87613" transform="matrix(.9961947 .08715574 -.08715574 .9961947 5.436438 -14.417659)"/><path d="m85.078125 107.903743h72.327231c3.304985 0 2.682224-4.778397 2.204468-7.189602-5.513878-27.8282232-27.037966-57.8257012-27.037966-97.43847649l-20.862578-3.27566451c-17.2560325 27.7884385-23.2234676 62.0016328-26.631155 107.903743z" fill="#dde3e9"/><path d="m77.8642133 79.7287221c-14.7443921 26.6301349-27.1378516 45.8025579-37.1803784 57.5172669l-15.1603974-2.973202c9.7656384-60.6420438 38.045624-105.3996394 84.8399565-134.272787h.238168 8.022299c18.729027 63.9253463 23.892288 106.518929 15.489784 127.780749h-65.1058325c1.0300391-15.55759 4.3327418-32.0103092 8.8564022-48.0520302z" fill="#ff9b21"/></g></g></svg>

<?xml version="1.0" encoding="UTF-8"?>
<svg width="306px" height="391px" viewBox="0 0 306 391" version="1.1" xmlns="http://www.w3.org/2000/svg" xmlns:xlink="http://www.w3.org/1999/xlink">
    <!-- Generator: Sketch 52.4 (67378) - http://www.bohemiancoding.com/sketch -->
    <title>hero-3</title>
    <desc>Created with Sketch.</desc>
    <g id="Sited" stroke="none" stroke-width="1" fill="none" fill-rule="evenodd">
        <g id="Scene" transform="translate(-212.000000, -525.000000)">
            <g id="hero-3" transform="translate(374.238389, 717.691224) rotate(-10.000000) translate(-374.238389, -717.691224) translate(231.738389, 517.691224)">
                <g id="Head/Front/Airy" transform="translate(74.410048, 0.138156)">
                    <g id="Head" stroke-width="1" transform="translate(53.117647, 29.211538)" fill="#B28B67">
                        <polygon id="Neck" points="8.99725783e-17 68.7884615 9.56480582 24.5 16.4631892 24.5 22.7647059 68.7884615"></polygon>
                        <path d="M33.9196976,46.421335 C26.8158986,48.240424 -0.421884591,34.3244325 1.00238343,14.1586008 C2.42665146,-6.00723093 30.6835327,-1.57100489 36.1800812,8.60697525 C41.6766296,18.7849554 41.0234967,44.6022461 33.9196976,46.421335 Z"></path>
                    </g>
                    <path d="M76.3224232,26.0880304 C73.3221009,25.5992376 65.2436007,25.2631789 63.7537809,25.2633959 C62.8017158,25.2633959 61.7699672,25.4794801 61.2060869,24.6110212 C60.7443146,23.8998526 60.9134787,22.6970707 60.7756655,21.8717853 C60.6156454,20.9130745 60.3883515,19.9667298 60.1584451,19.0227717 C59.5042133,16.3366891 58.514919,13.7812115 57.1306908,11.3819394 C54.5333578,6.88061937 50.728363,3.35471554 45.9247122,1.30300052 C40.6201005,-0.96241222 34.6174964,-1.48114444 28.911637,-1.02164011 C22.8056186,-0.530026892 17.278285,1.47244003 11.5132073,3.35688506 C6.01940182,5.15259673 0.265209866,5.85942633 -5.48070894,4.98250636 C-11.2699529,4.09907784 -15.6442709,0.981911565 -20.5273875,-1.9766628 C-25.5263282,-5.00552961 -31.2391544,-6.98651828 -37.1487944,-6.53113604 C-42.6652423,-6.10591013 -47.749527,-3.84310082 -52.3110794,-0.820308663 C-56.578935,2.00787755 -60.1004657,5.41055265 -62.0886337,10.199551 C-64.2274601,15.3510761 -64.2255007,21.005713 -60.7083243,25.5584506 C-55.6103236,32.1576964 -46.1460603,33.8642408 -38.2722008,33.6945843 C-33.717833,33.596739 -29.2448904,32.7708027 -24.9450307,31.2684102 C-19.2106507,29.2646415 -14.255253,25.868475 -8.89055209,23.1129677 C-6.37290261,21.8199338 -3.77056222,20.7579538 -1.04281833,19.992981 C1.60415351,19.2503544 4.21128362,18.9097397 6.60788388,20.4982622 C9.14316823,22.1787724 11.4150181,23.8295601 14.3154096,24.8815604 C17.0977998,25.890821 20.0449998,26.4553301 23.0093992,26.4325502 C28.7770895,26.388292 34.4627014,24.602994 40.0644933,23.4071546 C44.6325771,22.4321723 49.5202657,21.4604443 54.1773947,22.397677 C56.1207136,22.7888414 58.9592741,23.5963367 59.6611854,25.6027088 C47.8477836,27.7297062 43.2080826,42.2437947 46.53846,52.8985241 C48.3359102,58.6492707 59.1406302,65.3718326 63.3416476,62.3485783 C66.0031129,60.4332597 64.3873299,57.9187933 63.3416476,56.2588936 C61.3391104,53.0801129 60.6539631,48.9968594 64.3594624,46.7837321 C67.5557277,44.8749885 70.9163805,49.4077481 70.9799531,49.4027582 C71.8584308,49.3339844 79.4492411,45.0692065 84.6791713,38.8458139 C89.8385168,39.1496483 90.6212642,35.7700231 89.3893135,33.0061248 C88.1573629,30.2422266 80.4679233,26.7638359 76.3224232,26.0880304 Z" id="hair" fill="#101030"></path>
                </g>
                <g id="Bottom/Standing/Baggy-Pants" transform="translate(0.273968, 173.325707)">
                    <polygon id="Leg" fill="#997659" points="126.853333 0 173.317285 117.469797 204.48085 216.780609 216.786667 216.780609 169.144424 4.81349646e-13"></polygon>
                    <path d="M117.497074,0 C117.0023,41.2796932 109.786668,96.8560999 108.633854,99.4292659 C107.86531,101.14471 81.3339623,122.95957 29.039809,164.873845 L37.5155208,173.933701 C99.2177771,137.997468 131.496544,117.632848 134.351821,112.83984 C138.634736,105.650329 152.578432,39.4915019 163.773333,0 L117.497074,0 Z" id="Leg" fill="#B28B67"></path>
                    <g id="Accessories/Shoe/Flat-Sneaker" transform="translate(48.753333, 178.719665) rotate(50.000000) translate(-48.753333, -178.719665) translate(19.880000, 159.807531)" fill="#E4E4E4">
                        <path d="M2.50800092,24.2346094 C1.46988009,27.0203119 0.950819672,29.1089045 0.950819672,30.5003873 C0.950819672,32.2135092 1.23645941,34.7133801 1.80773888,38 C3.79679521,38 21.6727794,38 55.4356915,38 C56.8292918,33.3967819 56.0248249,30.9116526 53.0222906,30.544612 C50.0197563,30.1775714 47.5255,29.8461632 45.5395218,29.5503873 L20.6595211,18.4683207 C20.1550199,18.2436054 19.5638731,18.4704167 19.3391578,18.974918 C19.3353983,18.9833584 19.3317559,18.9918505 19.3282318,19.0003919 L17.7453502,22.8367603 C14.9657887,24.1325195 12.7071064,24.7803992 10.9693034,24.7803992 C9.5745413,24.7803992 7.65482233,24.2244261 5.21014647,23.11248 L5.21014351,23.1124865 C4.20469716,22.6551653 3.01888975,23.0995085 2.56156853,24.1049549 C2.54220197,24.1475333 2.52433511,24.1907781 2.50800092,24.2346094 Z" id="shoe"></path>
                    </g>
                    <g id="Accessories/Shoe/Flat-Sneaker" transform="translate(196.906667, 188.175732)" fill="#E4E4E4">
                        <path d="M2.50800092,24.2346094 C1.46988009,27.0203119 0.950819672,29.1089045 0.950819672,30.5003873 C0.950819672,32.2135092 1.23645941,34.7133801 1.80773888,38 C3.79679521,38 21.6727794,38 55.4356915,38 C56.8292918,33.3967819 56.0248249,30.9116526 53.0222906,30.544612 C50.0197563,30.1775714 47.5255,29.8461632 45.5395218,29.5503873 L20.6595211,18.4683207 C20.1550199,18.2436054 19.5638731,18.4704167 19.3391578,18.974918 C19.3353983,18.9833584 19.3317559,18.9918505 19.3282318,19.0003919 L17.7453502,22.8367603 C14.9657887,24.1325195 12.7071064,24.7803992 10.9693034,24.7803992 C9.5745413,24.7803992 7.65482233,24.2244261 5.21014647,23.11248 L5.21014351,23.1124865 C4.20469716,22.6551653 3.01888975,23.0995085 2.56156853,24.1049549 C2.54220197,24.1475333 2.52433511,24.1907781 2.50800092,24.2346094 Z" id="shoe"></path>
                    </g>
                    <polygon id="Pant" fill="#69A1AC" points="158.093333 206.551602 216.60156 200.208887 173.24 2.84217094e-14 120.836389 2.84217094e-14"></polygon>
                    <path d="M41.1420937,150.257357 L79.52,195.632749 C119.942622,151.533436 143.509116,122.758626 150.219482,109.30832 C156.929849,95.8580133 162.962126,59.4219067 168.316316,0 L109.319311,0 C106.394581,52.2768015 104.42311,79.63155 103.404897,82.0642454 C102.386684,84.4969408 81.6324159,107.227978 41.1420937,150.257357 Z" id="Pant" fill="#89C5CC"></path>
                </g>
                <g id="Body/Jacket-2" transform="translate(19.374347, 76.147272)">
                    <path d="M187.171875,73.4664412 L221.424864,58.4044855 C227.425189,52.417577 233.219358,47.8672497 238.807371,44.7535036 C240.478293,44.2208559 243.332986,44.0599367 240.287252,48.5142503 C237.241519,52.9685638 234.237935,57.7909866 235.45493,59.3520719 C236.671925,60.9131573 240.197294,59.1901441 241.59006,61.7287751 C242.518571,63.4211957 236.576067,65.4456842 223.762551,67.8022407 L198.109084,87.4960094 L187.171875,73.4664412 Z M48.6914236,77.6149733 L68.0625,81.463393 C48.5815779,117.814852 38.1343093,137.081147 36.7206942,139.262277 C33.5400603,144.169819 36.5076561,153.16391 37.6038736,157.90026 C30.7268198,159.503143 33.4389186,149.139069 24.7361399,151.302993 C16.7926471,153.278123 10.057523,158.34701 2.6505413,151.510807 C1.73989643,150.670336 1.07326132,148.043262 4.17811099,146.695848 C11.9134238,143.338949 23.341697,137.053223 25.1947925,134.612851 C27.7218192,131.284967 35.5540296,112.285675 48.6914236,77.6149733 Z" id="Skin" fill="#B28B67"></path>
                    <path d="M116.533027,9.34358663 L124.553801,7.23264299 C143.797506,22.9081854 154.656438,63.6631023 166.955854,68.1073875 C178.584453,72.3092794 193.987956,65.9110389 212.226597,57.4957332 L219.122101,69.8923531 C203.634072,89.9233151 168.55413,108.770694 152.997377,101.124212 C128.125363,88.8990776 118.206213,38.3300591 116.533027,9.34358663 Z" id="Coat-Back" fill="#E87613" transform="translate(167.827564, 55.048617) rotate(5.000000) translate(-167.827564, -55.048617) "></path>
                    <path d="M85.078125,107.903743 C117.853769,107.903743 141.962846,107.903743 157.405356,107.903743 C160.710341,107.903743 160.08758,103.125346 159.609824,100.714141 C154.095946,72.8859178 132.571858,42.8884398 132.571858,3.27566451 L111.70928,0 C94.4532475,27.7884385 88.4858124,62.0016328 85.078125,107.903743 Z" id="Shirt" fill="#DDE3E9"></path>
                    <path d="M77.8642133,79.7287221 C63.1198212,106.358857 50.7263617,125.53128 40.6838349,137.245989 L25.5234375,134.272787 C35.2890759,73.6307432 63.5690615,28.8731476 110.363394,3.08153982e-14 L110.601562,2.25746027e-14 L118.623861,0 C137.352888,63.9253463 142.516149,106.518929 134.113645,127.780749 L69.0078125,127.780749 C70.0378516,112.223159 73.3405543,95.7704398 77.8642147,79.7287188 Z" id="Coat-Front" fill="#FF9B21"></path>
                </g>
            </g>
        </g>
    </g>
</svg>
